{
  "compressionlevel": -1,
  "height": 8,
  "infinite": false,
  "layers": [
    {
      "data": [
        1,
        1,
        1,
        1,
        1,
        1,
        1,
        1,
        1,
        1,
        1,
        1,
        1,
        1,
        1,
        1,
        1,
        1,
        1,
        1,
        1,
        2,
        2,
        2,
        2,
        2,
        2,
        3,
        2,
        1,
        1,
        2,
        2,
        2,
        1,
        2,
        2,
        2,
        2,
        1,
        1,
        2,
        2,
        2,
        1,
        2,
        2,
        2,
        2,
        1,
        1,
        2,
        2,
        2,
        2,
        2,
        2,
        2,
        2,
        1,
        1,
        2,
        2,
        2,
        2,
        2,
        2,
        2,
        2,
        1,
        1,
        1,
        1,
        1,
        1,
        1,
        1,
        1,
        1,
        1
      ],
      "height": 8,
      "id": 1,
      "name": "base_terrain",
      "opacity": 1,
      "type": "tilelayer",
      "visible": true,
      "width": 10,
      "x": 0,
      "y": 0
    },
    {
      "data": [
        4,
        4,
        4,
        4,
        4,
        4,
        4,
        4,
        4,
        4,
        4,
        4,
        4,
        4,
        4,
        4,
        4,
        4,
        4,
        4,
        4,
        5,
        5,
        5,
        5,
        5,
        5,
        5,
        5,
        4,
        4,
        5,
        5,
        5,
        4,
        5,
        5,
        5,
        5,
        4,
        4,
        5,
        5,
        5,
        4,
        5,
        5,
        5,
        5,
        4,
        4,
        5,
        5,
        5,
        5,
        5,
        5,
        5,
        5,
        4,
        4,
        5,
        5,
        5,
        5,
        5,
        5,
        5,
        5,
        4,
        4,
        4,
        4,
        4,
        4,
        4,
        4,
        4,
        4,
        4
      ],
      "height": 8,
      "id": 2,
      "name": "passability",
      "opacity": 1,
      "type": "tilelayer",
      "visible": true,
      "width": 10,
      "x": 0,
      "y": 0
    },
    {
      "draworder": "index",
      "id": 3,
      "name": "transitions",
      "objects": [
        {
          "class": "member_transition",
          "height": 16,
          "id": 1,
          "name": "fixture_ascent",
          "properties": [
            {
              "name": "access_cell_x",
              "type": "int",
              "value": 7
            },
            {
              "name": "access_cell_y",
              "type": "int",
              "value": 3
            },
            {
              "name": "direction",
              "type": "string",
              "value": "up"
            },
            {
              "name": "paired_transition",
              "type": "string",
              "value": "fixture_descent"
            },
            {
              "name": "target_member",
              "type": "string",
              "value": "surface"
            }
          ],
          "rotation": 0,
          "visible": true,
          "width": 16,
          "x": 112,
          "y": 32
        }
      ],
      "opacity": 1,
      "type": "objectgroup",
      "visible": true,
      "x": 0,
      "y": 0
    }
  ],
  "nextlayerid": 4,
  "nextobjectid": 2,
  "orientation": "orthogonal",
  "properties": [
    {
      "name": "artifact_status",
      "type": "string",
      "value": "tracked_synthetic_authoring_fixture"
    },
    {
      "name": "authoring_origin",
      "type": "string",
      "value": "original_synthetic_fixture"
    },
    {
      "name": "content_authority",
      "type": "string",
      "value": "none"
    },
    {
      "name": "envelope_locked",
      "type": "bool",
      "value": true
    },
    {
      "name": "member_role",
      "type": "string",
      "value": "interior"
    },
    {
      "name": "runtime_consumable",
      "type": "bool",
      "value": false
    }
  ],
  "renderorder": "right-down",
  "tiledversion": "1.10.2",
  "tileheight": 16,
  "tilesets": [
    {
      "columns": 5,
      "firstgid": 1,
      "grid": {
        "height": 16,
        "orientation": "orthogonal",
        "width": 16
      },
      "margin": 0,
      "name": "fixture-interior-classes",
      "spacing": 0,
      "tilecount": 5,
      "tileheight": 16,
      "tiles": [
        {
          "class": "testland_wall",
          "id": 0
        },
        {
          "class": "testland_dungeon_floor",
          "id": 1
        },
        {
          "class": "testland_stairs_up",
          "id": 2
        },
        {
          "class": "fixture_blocked",
          "id": 3
        },
        {
          "class": "fixture_walkable",
          "id": 4
        }
      ],
      "tilewidth": 16
    }
  ],
  "tilewidth": 16,
  "type": "map",
  "version": "1.10",
  "width": 10
}
